X:1
T:Title
%%score { ( 1 2 ) | ( 3 4 5 ) }
L:1/8
Q:1/4=108
M:3/4
K:Bb
V:1 treble nm="Grand Piano"
V:2 treble 
V:3 bass 
V:4 bass 
V:5 bass 
V:1
 z2 F4 | z2 G4 | A2 B2 [DA]2 | G2 F2 D2 | z2 F4 | z2 G4 | A2 B2 [E=B]2 | d2 c2 [EA]2 | z2 F4 | %9
 z2 G4 | A2 B2 [DA]2 | G2 F2 [DG]2 | z2 A4 | z2 d4 | _d2 z2 z2 | [FAd]6 | [ce]2 [ce]2 [Bd]2 | %17
 [Ac]2 [Ac]2 [A,EF]2 | [Fd]2 [Fd]2 [Ec]2 | [DB]6 | [A,EF]2 [A,EF]2 [A,EF]2 | [A,EF]2 [EF]2 [EF]2 | %22
 [B,DF]2 [B,DF]2 [B,DF]2 | [B,DF]2 [DF]2 [DF]2 | [ce]2 [ce]2 [Bd]2 | [Ac]2 [Ac]2 [A,EF]2 | %26
 [Fd]2 [Fd]2 [Ec]2 | [DB]6 | [B,_D^FB]2 [B,DFB]2 [B,DFB]2 | [B,DFB]2 [B,DF]2 [DFB]2 | A2 B2 c2 | %31
 [DFB]6 |] %32
V:2
 [DF]F z2 F,2 | [DG]G z2 F,2 | D4 z2 | D4 z2 | [A,EF]F z2 F,2 | [A,EG]G z2 F,2 | E4 z2 | E4 z2 | %8
 [DF]F z2 F,2 | [DG]G z2 F,2 | D4 z2 | D4 z2 | [DFA]A z2 A,2 | [FAd]d z2 A,2 | %14
 [=EG]2- [EG=B]2 [EG_d]2 | x6 | x6 | x6 | x6 | z2 B,2 B,2 | x6 | x6 | x6 | x6 | x6 | x6 | x6 | %27
 z2 B,2 B,2 | x6 | x6 | x6 | x6 |] %32
V:3
 z2 D4 | z2 D4 | [B,,F,]4 [F,,F,]2 | [B,,F,]4 [B,,F,]2 | z2 [A,E]4 | z2 [A,E]4 | [C,F,]4 [F,,F,]2 | %7
 [A,,F,]4 [F,,F,]2 | z2 D4 | z2 D4 | [B,,F,]4 [F,,F,]2 | [B,,F,]4 [B,,B,]2 | %12
 z2[K:treble] [DF]4[K:bass] | z2[K:treble] [FA]4[K:bass] | [A,,A,]4 [A,,A,]2 | [D,A,]6 | %16
 F,,2 [F,A,E]2 [F,A,E]2 | F,,2 [F,A,E]2 F,2 | B,,2 [F,B,]2 [F,A,]2 | B,,2 F,2 F,2 | F,2 G,2 F,2 | %21
 z2 A,2 A,2 | F,2 G,2 F,2 | z2 B,2 B,2 | F,,2 [F,A,E]2 [F,A,E]2 | F,,2 [F,A,E]2 F,2 | %26
 B,,2 [F,B,]2 [F,A,]2 | B,,2 F,2 F,2 | [^F,,^F,]2 [F,,F,]2 [F,,F,]2 | [F,,F,]2 [F,,F,]2 [F,,F,]2 | %30
 [F,EF]2 [F,G,EF]2 [F,A,EF]2 | [B,,F,B,]6 |] %32
V:4
 z D z2 F,,2 | z D z2 F,,2 | x6 | x6 | z [A,E] z2 F,,2 | z [A,E] z2 F,,2 | x6 | x6 | z D z2 F,,2 | %9
 z D z2 F,,2 | x6 | x6 | z[K:treble] [DF] z2[K:bass] A,,2 | z[K:treble] [FA] z2[K:bass] A,,2 | x6 | %15
 x6 | x6 | x6 | x6 | x6 | x6 | C,6 | x6 | D,6 | x6 | x6 | x6 | x6 | x6 | x6 | x6 | x6 |] %32
V:5
 [B,,F,]4 z2 | [B,,F,]4 z2 | x6 | x6 | [C,F,]4 z2 | [C,F,]4 z2 | x6 | x6 | [B,,F,]4 z2 | %9
 [B,,F,]4 z2 | x6 | x6 | [A,,A,]4[K:treble][K:bass] z2 | [A,,A,]4[K:treble][K:bass] z2 | x6 | x6 | %16
 x6 | x6 | x6 | x6 | x6 | x6 | x6 | x6 | x6 | x6 | x6 | x6 | x6 | x6 | x6 | x6 |] %32

